X: 25078
T: Maids Of Kintail, The
R: jig
M: 6/8
K: Amixolydian
|:A2e edB|d2A A2d|BGd dBG|BAG G2g|
fed efg|a2A e2f|g2e dBd|1 eAA A2e:|2 eAA A2g||
|:a2a e2g|a2a e2f|g2g dBd|g2g e2g|
[1a2a e2g|a2A e2f|g2e dBd|eAA A2g:|
[2fed efg|a2A e2f|g2e dBd|eAA A2e||
ABd edB|d2A A2g|GBd dBG|BAG G2g|
fed efg|a2A e2f|g2e dBd|eAA A2d:|
|:ege ege|d2A A2B|ded dgd|BAG G2g|
fed efg|a2A e2f|g2e dBd|1 e2A A2g:|2 eAA A2e||

